X: 53
T:Mason's Apron, The
T:Mason Laddie
T:Mason's Apron
F:http://blackrosetheband.googlepages.com/ABCTUNES.ABC May 2009
M:4/4
L:1/8
R:reel
K:Amaj
|:ef|aAA2 ABAF|EFAc dcBA|dBB2 BcBA|Bcde fefg|
aAA2 ABAF|EFAc dcBA|dcde fefa|A2 cB A2:|
|:ed|cAeA fAeA|cAeA fedc|dBfB aBfB|defg afed|
cAeA fAeA|EFAc dcBA|d2dc defa|A2 cB A2:|

